X:99
T:Hornpipe
S:John Moore's Book 2
Z:Transcribed by Steve Mansfield 05/2021
%%VWML: Moore2-4494-p76-0
F:http://www.vwml.org/record/Moore2/4494/p76
M:C
L:1/8
K:G
D2 | GABc d2cB | cdef gfge | dBgf edcB | dcB2 AcBA | 
GABc d2cB | cdef gfgd | Bdgb agfa | g2b2g2 :|
|: Bc | dBdg eceg | dBdg eceg | dBgf edcB | dcB2 B2Bc | 
dBdg eceg | dBdg eceg | Bdgb Adfa | g2b2g2 :|

